X: 33675
T: Rambling Sailor, The
R: reel
M: 4/4
K: Edorian
|:BG|"Em" E2 B2 "G" BG "D" AF|"Em" E2 E2 "Bm" d3 d|
|:B2|"G" BcdB "Em" e2 e2|"G" BcdB "Em" e2 e2|
dB "A" cA "G" BG "D" AF|"Em" E2 E2 z2:|

